packages/assets/files/fram/mono/transportation/Boat.svg

<svg width="40" height="40" viewBox="0 0 40 40" fill="none"
  xmlns="http://www.w3.org/2000/svg">
  <path d="M6.44697 11.8273C6.31268 11.9233 5.9098 13.1894 5.56448 14.6475L4.95057 17.3141L3.72275 17.4101L2.51412 17.506L2.07287 19.0408C1.82347 19.8849 1.45896 21.1511 1.26712 21.8801L0.883423 23.1655L1.76592 23.8369C3.12803 24.8729 3.87623 24.777 5.73714 23.2998C7.06088 22.2254 8.69158 22.3597 10.2647 23.6451C11.5309 24.6811 12.5477 24.8153 13.4686 24.048C14.8498 22.8969 15.4829 22.5899 16.4997 22.5899C17.5165 22.5899 18.1496 22.8969 19.5309 24.048C20.4518 24.8153 21.4877 24.6811 22.8307 23.6451C24.4997 22.3597 26.1304 22.2254 27.4542 23.2998C29.5453 24.9496 30.1208 24.9496 32.2311 23.2806C33.1136 22.5707 34.8019 22.3597 35.7036 22.8393L36.2791 23.1271L38.1592 20.5564C39.2719 19.0216 39.9817 17.8513 39.9242 17.6787C39.8475 17.4676 39.3103 17.4101 37.2383 17.4101H34.6676L30.7731 14.5324L26.8594 11.6547H16.7875C11.2431 11.6547 6.60045 11.7314 6.44697 11.8273ZM13.3343 16.0671V17.6019H9.86184C6.658 17.6019 6.4086 17.5827 6.48534 17.2566C6.5429 17.0839 6.69637 16.4508 6.81148 15.8753C6.94577 15.2998 7.09925 14.7626 7.13762 14.6667C7.17599 14.5899 8.59565 14.5324 10.2839 14.5324H13.3343V16.0671ZM20.0489 16.0671V17.6019H16.9793H13.9098V16.0671V14.5324H16.9793H20.0489V16.0671ZM29.6604 15.8945C30.7156 16.6427 31.6172 17.3333 31.6748 17.4293C31.7323 17.5252 29.5261 17.6019 26.3031 17.6019H20.8163V16.0671V14.5324H24.2887H27.7803L29.6604 15.8945Z" fill="black"/>
  <path d="M6.88819 24.8345C6.54287 25.0264 5.90978 25.4676 5.46853 25.7937C4.0105 26.9256 2.6292 26.8681 1.09443 25.6595L0.154381 24.8921L0.0392728 25.6978C-0.0566504 26.446 -0.0182811 26.5419 0.633997 27.1367C1.74671 28.1151 2.49491 28.4029 3.66517 28.3069C4.41337 28.2494 4.85462 28.0767 5.37261 27.6547C7.31026 26.1199 8.02009 26.0431 9.43975 27.1559C10.7443 28.211 11.0704 28.3453 12.1448 28.3453C13.104 28.3453 13.7563 28.0192 15.1184 26.8873C15.7707 26.3309 16.8642 26.2734 17.574 26.7722C19.9146 28.3453 19.9146 28.3453 20.893 28.3453C21.8906 28.3453 22.14 28.2302 23.6939 27.0408C25.0177 26.0623 25.7467 26.1774 27.646 27.6738C28.2791 28.1918 28.5093 28.2494 29.6412 28.2494C30.7731 28.2494 31.0033 28.1918 31.6364 27.6738C33.4398 26.2542 34.2263 26.0815 35.435 26.9065L36.1256 27.3669L36.4326 26.6187C36.8162 25.6595 36.8162 25.4676 36.4517 25.4676C36.2791 25.4676 35.8954 25.2758 35.5692 25.0455C34.6676 24.3741 33.6892 24.4892 32.4805 25.4292C31.9242 25.8513 31.2143 26.2925 30.9266 26.4077C29.7179 26.8681 28.3366 26.4844 26.917 25.2566C25.6892 24.2014 24.9026 24.3549 22.7347 26.0623C21.5836 26.9448 19.9913 26.7722 18.4565 25.5827C16.7299 24.2398 16.1927 24.259 14.3318 25.6978C12.6244 27.0216 11.2431 26.9065 9.30546 25.2949C8.42297 24.5467 7.65558 24.4125 6.88819 24.8345Z" fill="black"/>
</svg>

<svg xmlns="http://www.w3.org/2000/svg" width="40" height="40" fill="none"><path fill="#000" d="M6.447 11.827c-.134.096-.537 1.362-.883 2.82l-.613 2.667-1.228.096-1.209.096-.441 1.535c-.25.844-.614 2.11-.806 2.84l-.384 1.285.883.67c1.362 1.037 2.11.941 3.971-.536 1.324-1.075 2.955-.94 4.528.345 1.266 1.036 2.283 1.17 3.204.403 1.38-1.151 2.014-1.458 3.03-1.458 1.018 0 1.65.307 3.032 1.458.92.767 1.957.633 3.3-.403 1.669-1.285 3.3-1.42 4.623-.345 2.091 1.65 2.667 1.65 4.777-.02.883-.71 2.57-.92 3.473-.44l.575.287 1.88-2.57c1.113-1.535 1.823-2.706 1.765-2.878-.077-.211-.614-.269-2.686-.269h-2.57l-3.895-2.878-3.914-2.877H16.787c-5.544 0-10.187.076-10.34.172Zm6.887 4.24v1.535H9.862c-3.204 0-3.453-.02-3.377-.345.058-.173.211-.806.326-1.382.135-.575.288-1.112.327-1.208.038-.077 1.458-.135 3.146-.135h3.05v1.535Zm6.715 0v1.535h-6.14v-3.07h6.14v1.535Zm9.611-.172c1.056.748 1.957 1.438 2.015 1.534.057.096-2.149.173-5.372.173h-5.487v-3.07h6.964l1.88 1.363Z"/><path fill="#000" d="M6.888 24.834c-.345.192-.978.634-1.42.96-1.457 1.132-2.839 1.074-4.374-.134l-.94-.768-.115.806c-.096.748-.057.844.595 1.439 1.113.978 1.86 1.266 3.031 1.17.748-.058 1.19-.23 1.708-.652 1.937-1.535 2.647-1.612 4.067-.5 1.304 1.056 1.63 1.19 2.705 1.19.959 0 1.611-.326 2.973-1.458.653-.556 1.746-.614 2.456-.115 2.34 1.573 2.34 1.573 3.319 1.573.998 0 1.247-.115 2.8-1.304 1.325-.979 2.054-.864 3.953.633.633.518.863.575 1.995.575 1.132 0 1.362-.057 1.995-.575 1.804-1.42 2.59-1.593 3.799-.767l.69.46.308-.748c.383-.96.383-1.151.019-1.151-.173 0-.557-.192-.883-.422-.901-.672-1.88-.557-3.089.383-.556.422-1.266.864-1.553.979-1.21.46-2.59.076-4.01-1.151-1.228-1.056-2.014-.902-4.182.805-1.151.883-2.744.71-4.279-.48-1.726-1.342-2.263-1.323-4.124.116-1.708 1.324-3.089 1.209-5.027-.403-.882-.748-1.65-.883-2.417-.46Z"/></svg>
